X:1
T:Gesù Bambino
T:Gesù Bambino
T:flute solo with piano accompaniment
T:Music by Pietro A. Yon Arranged by A.J. Macalintal
T:Arr. © 2016, Resonatng Generations Performance Series
T:Arr. © 2016, Resonatng Generations Performance Series
T:Arr. © 2016, Resonatng Generations Performance Series
T:Arr. © 2016, Resonatng Generations Performance Series
T:Arr. © 2016, Resonatng Generations Performance Series
T:Arr. © 2016, Resonatng Generations Performance Series
T:Arr. © 2016, Resonatng Generations Performance Series
C:Music by Pietro A. Yon
Z:Arr. © 2016, Resonatng Generations Performance Series
%%score 1 { ( 2 5 ) | ( 3 4 ) }
L:1/8
Q:3/16=100
M:12/8
K:C
V:1 treble nm="Flute" snm="Fl."
V:2 treble nm="Piano" snm="Pno."
V:5 treble 
V:3 bass 
V:4 bass 
V:1
 z | z12 | z6 z3 z z!mf! g | (g>f)e (f>e)d (e>d)c d2 G | c2 c (de)f g3- g2 g | %5
 (g>f)e (f>e)d (e>d)c d2 G | (c>d)e (f>e)d c3- c2 c | (a>bc' c'>ba) g2 e g2!p! c | %8
 (a>bc' c'>ba)!<(! g6-!<)! | g3- g2!f! g (_a>gf _e>dc) | d2 _e c2 c (de)f g2 g | %11
!<(! _b6- b3-!>(! !fermata!b2!pp! _B!<)!!>)! ||[K:Eb] e3 d3 e3 f3 | e6 B3- B2 g | g3 f3 g3 a3 | %15
 g6 f3- f2 g | a3 g3 f3 e3 | d6 e3 a3 | (g6({fg)} f3- f2) e | e12- | e3 z6 z2!p! g || %21
[K:C] (g>f)e (f>e)d (e>d)c d2 (G | c2) c (de)f g3- g2 g | (g>f)e (f>e)d (e>d)c d2 G | %24
 (c>d)e (f>e)d c3- c2!f! c | (a>b)c' (c'>b)a g2 e g2!p! c | (a>b)c' (c'>b)a g6- | %27
 g3- g2!f! g (_a>gf _e>dc) | d2 _e c2 c (de)f g2 g | _b6- b3- b2!pp! _B ||[K:Eb] e3 d3 e3 f3 | %31
 e6 (B3 B2) g | g3 f3 g3 a3 | g6 f3- f2 g | a3 g3 f3 e3 | (d6 e3) a3 | (g6({fg)} f3- f2) e | e12- | %38
 e3 z6 z2!p! g ||[K:C] (g>fe f>ed e>dc d2) G | c2 c (de)f (g3 g2) g | (g>fe f>ed e>dc d2) G | %42
 (c>de f>ed) (c3 c2)!f! c | (c'6 g3- g2)!p! c | (c'6 g6- | g3- g2)!f! g (_a>gf _e>dc) | %46
 (d2 _e) c3 z6 | z3!<(! _e3 _a3 c'3!<)! |!>(! _e'6 c'3 !fermata!_a3!>)! |!p! (g>fe f>ed) c6- | %50
 c3 z z8 |] %51
V:2
!p! (C | C3 B,3 C3 D3 | C6 [G,C]6) |!mf! (C3 B,3 C3 D3) | (C3 B,3 C3 D3) | (C3 B,3 C3 D3) | %6
 (C3 B,3 C3- C2) C | (F>GA A>GF) [G,C]2 E [G,C]2!p! [CE] | (F>GA A>GF) [CE]2 [B,D] [CE]2 [B,D] | %9
 [CE]2 [B,D] [CE]2!f! ([_B,_D] [_A,C]2 [=A,B,] [G,B,]2 [G,C] | %10
 [F,=B,D]2 [F,B,_E] [_A,C]2) [A,C] DEF [G,G]2 [CEG] | %11
 [_B,DF_B]2 [B,_EGB] [B,DFB]2 [B,EGB] [B,DFB]2 [B,EGB] [B,DFB]2 !fermata!z || %12
[K:Eb]!pp! (B>AG) (A>GF) (G>FE) F2 (B, | E2 E FGA B6) | (B>AG) (A>GF) (G>FE) F2 (B, | %15
 E2 E FGA B3-) B2 B | (c>BA) (B>AG) (A>GF) G2 E | (F2 G AGF GAB c2) [A,A] | %18
 [B,B][Cc][Dd] [Ee][Ff][Gg] A/G/A/B/c/B/ c/d/c/B/A/F/ | (E12 | (E3) D3 C3 =B,3) || %21
[K:C]!p! [CEGc]3 [B,DGB]3 [CEGc]3 [Dd]2 [Gg] | [CEGc]3 [B,DGB]3 [CEGc]3 [Dd]2 [Gg] | %23
 [CEGc]3 [B,DGB]3 [CEGc]3 [Dd]2 [Gg] | [Cc]>[Dd][Ee] [GBdf]>[Gce][FGd] [EGc]2 [DGB] [EGc]2!f! (C | %25
 [FA]>[GB][Ac] [Ac]>[GB][FA] [G,C]2 E [G,C]2 [CE]) | (F>GA A>GF) [CE]2 [B,D] [CE]2 ([B,D] | %27
 [CE]2) [B,D] [CE]2!f! [_B,_D] [_A,C]2 [=A,B,] [G,B,]2 [G,C] | %28
 [F,=B,D]2 [F,B,_E] [_A,C]2 [A,C] DEF [G,G]2 [CEG] | %29
 [_B,DF_B]2 [B,_EGB] [B,DFB]2 [B,EGB] [B,DFB]2 [B,EGB] [B,DFB]2 !fermata!z || %30
[K:Eb] (B>AG) (A>GF) (G>FE) F2 (B, | E2 E FGA B6) | (B>AG) (A>GF) (G>FE) F2 B, | %33
 E2 E FGA B3- B2 B | (c>BA) (B>AG) (A>GF) G2 E | (F2 G AGF GAB c2) [A,A] | %36
 [B,B][Cc][Dd] [Ee][Ff][Gg] A/G/A/B/c/B/ c/d/c/B/A/F/ | E12 | (E3 D3 C3 =B,3) || %39
[K:C]!p! (C3 B,3 C3 D3) | (C3 B,3 C3 D3) | (C3 B,3 C3 D3) | (C3 B,3 C3- C2)!f! C | %43
 [FA]>[GB][Ac] [Ac]>[GB][FA] [G,C]2 E [G,C]2!p! [CE] | (F>GA A>GF) [CE]2 [B,D] [CE]2 [B,D] | %45
 [CE]2 [B,D] [CE]2!f! [_B,_D] [_A,C]2 [=A,B,] [G,B,]2 [G,C] | %46
 [F,B,]2 [F,B,] [_E,_A,C]3 =A>_BA G2 F | [_Ec]12 | z12 |!p! C3 B,3 C6- | C3 C3 C6 |] %51
V:3
 z | (E,2 G,) (D,2 G,) (E,2 G,) (F,2 G,) | E,>F,G, F,2 D, [C,E,]6 | %3
 (E,2 G,) (D,2 G,) (E,2 G,) (F,2 G,) | (E,2 G,) (D,2 G,) (E,2 G,) (F,2 G,) | %5
 (E,2 G,) (D,2 G,) (E,2 G,) (F,2 G,) | (E,2 G,) (D,2 G,) ([G,,E,]>F,[G,,D,]) E,3 | %7
 !arpeggio![F,,C,A,]2 C, !arpeggio![F,,C,A,]2 C, !arpeggio![C,,G,,E,]2 G,, !arpeggio![C,,G,,E,]2 C, | %8
 !arpeggio![F,,C,A,]2 C, !arpeggio![F,,C,A,]2 C, [C,,C,]2 [G,,,G,,] [C,,C,]2 [G,,,G,,] | %9
 [C,,C,]2 [G,,,G,,] [C,,C,]2 [E,,,E,,] [F,,,F,,]2 [D,,,D,,] [_E,,,_E,,]2 [E,,,E,,] | %10
 [G,,,G,,]2 [G,,,G,,] [_A,,,_A,,]2 [A,,,A,,] [G,,,G,,]2 [F,,,F,,] [_E,,,_E,,][D,,,D,,][C,,,C,,] | %11
 [_B,,,,_B,,,]2 [_E,,,_E,,] [B,,,_B,,]2 [E,,,E,,] [B,,,B,,]2 [E,,,E,,] [B,,,B,,]2 !fermata!z || %12
[K:Eb] !arpeggio![E,,B,,G,]3 [B,,D,A,]3 !arpeggio![E,,B,,G,]3 [B,,D,A,]3 | %13
 !arpeggio![E,,B,,G,]3 [C,E,A,]3 !arpeggio![E,,B,,G,]3 [B,,D,F,]3 | %14
 !arpeggio![E,,B,,G,]3 [B,,D,A,]3 !arpeggio![E,,B,,G,]3 [B,,D,A,]3 | %15
 !arpeggio![B,,G,]3 [A,C]3 [A,B,]6 | [A,,E,A,]3 !arpeggio![E,,B,,G,]3 [B,,F,A,]3 [C,G,B,]3 | %17
 [B,,D,F,B,]6 !arpeggio![G,,B,,E,B,]3 !arpeggio![F,,C,E,A,]3 | [B,,E,G,]6 [B,,D,F,]6 | %19
 E,2 D, E,2 D, E,2 D, E,2 E, | [E,,B,,]3 [B,,,B,,]3 [C,,G,,]3 [G,,,G,,]3 || %21
[K:C] [C,,C,]3 [G,,G,]3 [C,,C,]3 [G,,G,]3 | [C,,C,]3 [G,,,G,,]3 [C,,C,]3 [G,,G,]3 | %23
 [C,,C,]3 [G,,,G,,]3 [C,,C,]3 [G,,G,]3 | [C,,C,]3 [G,,,G,,]3 [C,,C,]3- [C,,C,]2 C, | %25
 !arpeggio![F,,C,A,]2 C, !arpeggio![F,,C,A,]2 A, !arpeggio![C,,G,,E,]6 | %26
 !arpeggio![F,,C,A,]2 C, !arpeggio![F,,C,A,]2 C, [C,,C,]2 [G,,,G,,] [C,,C,]2 [G,,,G,,] | %27
 [C,,C,]2 [G,,,G,,] [C,,C,]2 [E,,,E,,] [F,,,F,,]2 [D,,,D,,] [_E,,,_E,,]2 [E,,,E,,] | %28
 [G,,,G,,]2 [G,,,G,,] [_A,,,_A,,]2 [A,,,A,,] [G,,,G,,]2 [F,,,F,,] [_E,,,_E,,][D,,,D,,][C,,,C,,] | %29
 [_B,,,,_B,,,]2 [_E,,,_E,,] [B,,,_B,,]2 [E,,,E,,] [B,,,B,,]2 [E,,,E,,] [B,,,B,,]2 !fermata!z || %30
[K:Eb] !arpeggio![E,,B,,G,]3 [B,,D,A,]3 !arpeggio![E,,B,,G,]3 [B,,D,A,]3 | %31
 !arpeggio![E,,B,,G,]3 [C,E,A,]3 !arpeggio![E,,B,,G,]3 [B,,D,F,]3 | %32
 !arpeggio![E,,B,,G,]3 [B,,D,A,]3 !arpeggio![E,,B,,G,]3 [B,,D,A,]3 | %33
 !arpeggio![B,,G,]3 [A,C]3 [A,B,]6 | [A,,E,A,]3 !arpeggio![E,,B,,G,]3 [B,,F,A,]3 [C,G,B,]3 | %35
 [B,,D,F,B,]6 !arpeggio![G,,B,,E,B,]3 !arpeggio![F,,C,E,A,]3 | [B,,E,G,]6 [B,,D,F,]6 | %37
 E,2 D, E,2 D, E,2 D, E,2 E, | [E,,B,,]3 [B,,,B,,]3 [C,,G,,]3 [G,,,G,,]3 || %39
[K:C] (E,2 G,) (D,2 G,) (E,2 G,) (F,2 G,) | (E,2 G,) (D,2 G,) (E,2 G,) (F,2 G,) | %41
 (E,2 G,) (D,2 G,) (E,2 G,) (F,2 G,) | (E,2 G,) (D,2 G,) ([G,,E,]>F,[G,,D,]) E,3 | %43
 !arpeggio![F,,C,A,]2 C, !arpeggio![F,,C,A,]2 A, !arpeggio![C,,G,,E,]6 | %44
 !arpeggio![F,,C,A,]2 C, !arpeggio![F,,C,A,]2 C, [C,,C,]2 [G,,,G,,] [C,,C,]2 [G,,,G,,] | %45
 [C,,C,]2 [G,,,G,,] [C,,C,]2 [E,,,E,,] [F,,,F,,]2 [D,,,D,,] [_E,,,_E,,]2 [E,,,E,,] | %46
 [G,,,G,,]2 [G,,,G,,] [_A,,,_A,,]3 [F,=C-]3 [G,B,]3 | [_A,C]12 | z12 | %49
 (E,2 G,) (D,2 G,) E,>F,G, E,>F,G, | E,3 E,3 E,6 |] %51
V:4
 x | [C,,G,,]6 [C,,G,,]6 | [C,,G,,]6 [C,,G,,]6 | [C,,G,,]6 [C,,G,,]6 | [C,,G,,]6 [C,,G,,]6 | %5
 [C,,G,,]6 [C,,G,,]6 | [C,,G,,]6 C,,3- [C,,C,]2 C, | x12 | x12 | x12 | x12 | x12 ||[K:Eb] x12 | %13
 x12 | x12 | E,,3 [B,,E,-]3 E,[D,,D,][C,,C,] [D,,D,]3 | x12 | x12 | z3 B,,,3 z3 B,,,3 | %19
 [E,,B,,]12 | E,3 (F,>E,D,) (E,>D,C,) (D,>E,F,) ||[K:C] x12 | x12 | x12 | x12 | x12 | x12 | x12 | %28
 x12 | x12 ||[K:Eb] x12 | x12 | x12 | E,,3 [B,,E,-]3 E,[D,,D,][C,,C,] [D,,D,]3 | x12 | x12 | %36
 z3 B,,,3 z3 B,,,3 | [E,,B,,]12 | E,3 (F,>E,D,) (E,>D,C,) (D,>E,F,) ||[K:C] [C,,G,,]6 [C,,G,,]6 | %40
 [C,,G,,]6 [C,,G,,]6 | [C,,G,,]6 [C,,G,,]6 | [C,,G,,]6 C,,3- [C,,C,]2 C, | x12 | x12 | x12 | x12 | %47
 x12 | x12 | [C,,G,,]3 [G,,,G,,]3 [C,,G,,]6- | [C,,G,,]3 [G,,,G,,]3 [C,,G,,]6 |] %51
V:5
 x | x12 | x12 | x12 | x12 | x12 | x12 | C3 C3 x6 | C3 C3 G,6- | G,3- G,2 x7 | %10
 F,2 F, _E,2 E, [G,B,]2 [G,B,] CDG, | x12 ||[K:Eb] x12 | x12 | x12 | x12 | x12 | x12 | x12 | %19
 G,2 (F, G,2) F, G,2 F, G,2 E | G,>F,E, x9 ||[K:C] x12 | x12 | x12 | x12 | x12 | C3 C3 G,6 | %27
 G,3- G,2 x7 | F,2 F, _E,2 E, [G,B,]2 [G,B,] CDG, | x12 ||[K:Eb] x12 | x12 | x12 | x12 | x12 | %35
 x12 | x12 | G,2 (F, G,2) F, G,2 F, G,2 E | G,>F,E, x9 ||[K:C] x12 | x12 | x12 | x12 | x12 | %44
 C3 C3 G,6 | G,3- G,2 x7 | x6 =d3 _e3 | x12 | x12 | x12 | x12 |] %51

